src/assets/icons/email-plus.svg

<svg width="20" height="20" viewBox="0 0 20 20" fill="none" xmlns="http://www.w3.org/2000/svg">
<path d="M14.167 5.83333H15.0003V6.66667C15.0003 6.88768 15.0881 7.09964 15.2444 7.25592C15.4007 7.4122 15.6126 7.5 15.8337 7.5C16.0547 7.5 16.2666 7.4122 16.4229 7.25592C16.5792 7.09964 16.667 6.88768 16.667 6.66667V5.83333H17.5003C17.7213 5.83333 17.9333 5.74554 18.0896 5.58926C18.2459 5.43298 18.3337 5.22101 18.3337 5C18.3337 4.77899 18.2459 4.56702 18.0896 4.41074C17.9333 4.25446 17.7213 4.16667 17.5003 4.16667H16.667V3.33333C16.667 3.11232 16.5792 2.90036 16.4229 2.74408C16.2666 2.5878 16.0547 2.5 15.8337 2.5C15.6126 2.5 15.4007 2.5878 15.2444 2.74408C15.0881 2.90036 15.0003 3.11232 15.0003 3.33333V4.16667H14.167C13.946 4.16667 13.734 4.25446 13.5777 4.41074C13.4215 4.56702 13.3337 4.77899 13.3337 5C13.3337 5.22101 13.4215 5.43298 13.5777 5.58926C13.734 5.74554 13.946 5.83333 14.167 5.83333ZM17.5003 9.16667C17.2793 9.16667 17.0673 9.25446 16.9111 9.41074C16.7548 9.56702 16.667 9.77899 16.667 10V15C16.667 15.221 16.5792 15.433 16.4229 15.5893C16.2666 15.7455 16.0547 15.8333 15.8337 15.8333H4.16699C3.94598 15.8333 3.73402 15.7455 3.57774 15.5893C3.42146 15.433 3.33366 15.221 3.33366 15V7.00833L8.23366 11.9167C8.70241 12.3848 9.33782 12.6478 10.0003 12.6478C10.6628 12.6478 11.2982 12.3848 11.767 11.9167L13.8253 9.85833C13.9822 9.70141 14.0704 9.48858 14.0704 9.26667C14.0704 9.04475 13.9822 8.83192 13.8253 8.675C13.6684 8.51808 13.4556 8.42992 13.2337 8.42992C13.0117 8.42992 12.7989 8.51808 12.642 8.675L10.5837 10.7333C10.4279 10.886 10.2185 10.9715 10.0003 10.9715C9.7822 10.9715 9.57276 10.886 9.41699 10.7333L4.50866 5.83333H10.8337C11.0547 5.83333 11.2666 5.74554 11.4229 5.58926C11.5792 5.43298 11.667 5.22101 11.667 5C11.667 4.77899 11.5792 4.56702 11.4229 4.41074C11.2666 4.25446 11.0547 4.16667 10.8337 4.16667H4.16699C3.50395 4.16667 2.86807 4.43006 2.39923 4.8989C1.93038 5.36774 1.66699 6.00363 1.66699 6.66667V15C1.66699 15.663 1.93038 16.2989 2.39923 16.7678C2.86807 17.2366 3.50395 17.5 4.16699 17.5H15.8337C16.4967 17.5 17.1326 17.2366 17.6014 16.7678C18.0703 16.2989 18.3337 15.663 18.3337 15V10C18.3337 9.77899 18.2459 9.56702 18.0896 9.41074C17.9333 9.25446 17.7213 9.16667 17.5003 9.16667Z" fill="#999999"/>
</svg>

<svg xmlns="http://www.w3.org/2000/svg" width="20" height="20" fill="none" xmlns:v="https://vecta.io/nano"><path d="M14.167 5.833H15v.833c0 .221.088.433.244.589s.368.244.589.244.433-.088.589-.244.244-.368.244-.589v-.833h.833c.221 0 .433-.088.589-.244s.244-.368.244-.589-.088-.433-.244-.589-.368-.244-.589-.244h-.833v-.833c0-.221-.088-.433-.244-.589s-.368-.244-.589-.244-.433.088-.589.244-.244.368-.244.589v.833h-.833c-.221 0-.433.088-.589.244s-.244.368-.244.589.088.433.244.589.368.244.589.244zM17.5 9.167c-.221 0-.433.088-.589.244s-.244.368-.244.589v5c0 .221-.088.433-.244.589s-.368.244-.589.244H4.167c-.221 0-.433-.088-.589-.244s-.244-.368-.244-.589V7.008l4.9 4.908a2.5 2.5 0 0 0 3.533 0l2.058-2.058c.157-.157.245-.37.245-.592s-.088-.435-.245-.592-.37-.245-.592-.245-.435.088-.592.245l-2.058 2.058c-.156.153-.365.238-.583.238s-.428-.086-.583-.238l-4.908-4.9h6.325c.221 0 .433-.088.589-.244s.244-.368.244-.589-.088-.433-.244-.589-.368-.244-.589-.244H4.167a2.5 2.5 0 0 0-2.5 2.5V15a2.5 2.5 0 0 0 2.5 2.5h11.667a2.5 2.5 0 0 0 2.5-2.5v-5c0-.221-.088-.433-.244-.589s-.368-.244-.589-.244z" fill="#999"/></svg>
